dist/images/cloud.svg

<svg width="16" height="12" viewBox="0 0 16 12" fill="none" xmlns="http://www.w3.org/2000/svg">
<path d="M12.9 4.69335C12.4467 2.39335 10.4267 0.666687 8 0.666687C6.07333 0.666687 4.4 1.76002 3.56667 3.36002C1.56 3.57335 0 5.27335 0 7.33335C0 9.54002 1.79333 11.3334 4 11.3334H12.6667C14.5067 11.3334 16 9.84002 16 8.00002C16 6.24002 14.6333 4.81335 12.9 4.69335ZM11.3333 6.66669L8 10L4.66667 6.66669H6.66667V4.00002H9.33333V6.66669H11.3333Z" fill="#0094FF"/>
</svg>

<svg width="16" height="12" fill="none" xmlns="http://www.w3.org/2000/svg"><path d="M12.9 4.693A4.993 4.993 0 003.567 3.36 3.996 3.996 0 000 7.333c0 2.207 1.793 4 4 4h8.667A3.335 3.335 0 0016 8a3.317 3.317 0 00-3.1-3.307zm-1.567 1.974L8 10 4.667 6.667h2V4h2.666v2.667h2z" fill="#0094FF"/></svg>
